X: 760
T: Air Tune, The
R: reel
M: 4/4
K: Dmajor
Affe f2de|fade f2ed|Beed faed|BA ~A2 BAFG|
Affg a2ag|fade f2ed|d2Be dB(3Bcd|1 FGEF D3B:|2 FGEF D3g||
abga fgef|edcd FADA|Beed fded|BA ~A2 BAFG|
abga fgef|edcd FADA|GBBA BdcB|1 Affe defg:|2 Affe d3B||

